X:9
T:\'Eamonn a' Chnuic
T:\'Eamonn an Chnuic
R:slow air
Z:id:hn-slowair-9
M:3/4
L:1/8
Q:1/4=70
K:G
BA | G4 EF | G4 GA | B g3 f2 | e4 fe |
d3 B A2 | G4 AB |1 c3 BAG | E4 :|2 A4 G2 | G4 ||
d2 | e2 c2 g2 | d4 Bd | e2 f2 e2 | d4 d2 |
d3 B A2 | G2 A2 B2 | c3 BAG | E4 BA |
G4 EF | G4 GA | B g3 f2 | e4 fe |
d3 B A2 | G4 AB | A4 G2 | G4 || 

